svgs/sharp-solid/diagram-lean-canvas.svg

<svg xmlns="http://www.w3.org/2000/svg" viewBox="0 0 640 512"><!--! Font Awesome Pro 6.6.0 by @fontawesome - https://fontawesome.com License - https://fontawesome.com/license (Commercial License) Copyright 2024 Fonticons, Inc. --><path d="M512 96l0 208 64 0 0-208-64 0zm-48 0l-64 0 0 80 64 0 0-80zM352 96l-64 0 0 208 64 0 0-208zM240 96l-64 0 0 80 64 0 0-80zM128 96L64 96l0 208 64 0 0-208zM64 352l0 64 232 0 0-64L64 352zm280 64l232 0 0-64-232 0 0 64zM0 32l64 0 512 0 64 0 0 64 0 320 0 64-64 0L64 480 0 480l0-64L0 96 0 32zM240 304l0-80-64 0 0 80 64 0zm224-80l-64 0 0 80 64 0 0-80z"/></svg>

<svg xmlns="http://www.w3.org/2000/svg" viewBox="0 0 640 512"><!--! Font Awesome Pro 6.4.2 by @fontawesome - https://fontawesome.com License - https://fontawesome.com/license (Commercial License) Copyright 2023 Fonticons, Inc. --><path d="M512 96V304h64V96H512zm-48 0H400v80h64V96zM352 96H288V304h64V96zM240 96H176v80h64V96zM128 96H64V304h64V96zM64 352v64H296V352H64zm280 64H576V352H344v64zM0 32H64 576h64V96 416v64H576 64 0V416 96 32zM240 304V224H176v80h64zm224-80H400v80h64V224z"/></svg>
